humanity-icon-theme/Humanity-Dark/places/22/start-here.svg

<?xml version="1.0" encoding="UTF-8" standalone="no"?>
<!-- Created with Inkscape (http://www.inkscape.org/) -->

<svg
   xmlns:dc="http://purl.org/dc/elements/1.1/"
   xmlns:cc="http://creativecommons.org/ns#"
   xmlns:rdf="http://www.w3.org/1999/02/22-rdf-syntax-ns#"
   xmlns:svg="http://www.w3.org/2000/svg"
   xmlns="http://www.w3.org/2000/svg"
   xmlns:sodipodi="http://sodipodi.sourceforge.net/DTD/sodipodi-0.dtd"
   xmlns:inkscape="http://www.inkscape.org/namespaces/inkscape"
   version="1.1"
   width="22"
   height="22"
   id="svg2864"
   inkscape:version="0.47 r22583"
   sodipodi:docname="start-here.svg">
  <metadata
     id="metadata13">
    <rdf:RDF>
      <cc:Work
         rdf:about="">
        <dc:format>image/svg+xml</dc:format>
        <dc:type
           rdf:resource="http://purl.org/dc/dcmitype/StillImage" />
      </cc:Work>
    </rdf:RDF>
  </metadata>
  <sodipodi:namedview
     pagecolor="#ffffff"
     bordercolor="#666666"
     borderopacity="1"
     objecttolerance="10"
     gridtolerance="10"
     guidetolerance="10"
     inkscape:pageopacity="0"
     inkscape:pageshadow="2"
     inkscape:window-width="725"
     inkscape:window-height="664"
     id="namedview11"
     showgrid="false"
     inkscape:zoom="15.409091"
     inkscape:cx="11"
     inkscape:cy="11"
     inkscape:window-x="34"
     inkscape:window-y="24"
     inkscape:window-maximized="0"
     inkscape:current-layer="svg2864" />
  <defs
     id="defs2866">
    <inkscape:perspective
       sodipodi:type="inkscape:persp3d"
       inkscape:vp_x="0 : 11 : 1"
       inkscape:vp_y="0 : 1000 : 0"
       inkscape:vp_z="22 : 11 : 1"
       inkscape:persp3d-origin="11 : 7.3333333 : 1"
       id="perspective15" />
    <inkscape:perspective
       id="perspective3608"
       inkscape:persp3d-origin="0.5 : 0.33333333 : 1"
       inkscape:vp_z="1 : 0.5 : 1"
       inkscape:vp_y="0 : 1000 : 0"
       inkscape:vp_x="0 : 0.5 : 1"
       sodipodi:type="inkscape:persp3d" />
    <filter
       inkscape:collect="always"
       id="filter3634">
      <feGaussianBlur
         inkscape:collect="always"
         stdDeviation="0.70346741"
         id="feGaussianBlur3636" />
    </filter>
  </defs>
  <path
     style="fill:#ffffff;fill-opacity:1;overflow:visible"
     d="M 16.25 2 A 1.5 1.5 0 0 0 15 3.5 A 1.5 1.5 0 0 0 18 3.5 A 1.5 1.5 0 0 0 16.25 2 z M 11.53125 3.6875 C 10.883978 3.6894197 10.242247 3.8364142 9.5 4.1875 L 10.78125 6.75 C 13.223909 6.0601185 15.356412 7.6276318 16.1875 10.15625 L 19.15625 10.15625 C 18.870948 8.6790345 18.260122 7.1737025 17.21875 6.0625 C 16.49184 6.4336834 15.599418 6.4631727 14.84375 6.03125 C 14.088859 5.5995313 13.66398 4.8078704 13.625 4 C 12.823341 3.8143456 12.178522 3.6855803 11.53125 3.6875 z M 8 4.8125 C 6.7349537 5.6898707 5.4926313 7.377519 5.15625 8.96875 C 6.0896331 9.4539877 6.5597642 10.20461 6.59375 11.46875 C 6.6256623 12.655762 5.9044667 13.42718 5.25 13.90625 C 5.8296715 15.029538 7.0916473 16.641422 8.1875 17.15625 L 9.40625 14.21875 C 7.6946362 12.903973 7.0671441 10.041982 9.40625 7.6875 L 8 4.8125 z M 3.40625 9.96875 A 1.5000001 1.5000001 0 0 0 2.84375 12.8125 A 1.5000001 1.5000001 0 1 0 4.1875 10.125 A 1.5000001 1.5000001 0 0 0 3.40625 9.96875 z M 16.1875 11.875 C 15.507887 14.347108 13.610019 15.89867 10.9375 15.15625 L 9.75 17.9375 C 11.172254 18.401987 11.991889 18.453567 13.5625 18.03125 C 13.607777 17.221551 14.052405 16.469906 14.8125 16.03125 C 15.572759 15.5925 16.463609 15.571689 17.1875 15.9375 C 18.116313 14.742895 18.91991 13.398969 19.15625 11.875 L 16.1875 11.875 z M 16.40625 17 A 1.5 1.5 0 0 0 15 18.5 A 1.5 1.5 0 0 0 18 18.5 A 1.5 1.5 0 0 0 16.40625 17 z "
     id="path19" />
</svg>

<?xml version="1.0" encoding="UTF-8" standalone="no"?>
<!-- Created with Inkscape (http://www.inkscape.org/) -->
<svg id="svg2864" xmlns:rdf="http://www.w3.org/1999/02/22-rdf-syntax-ns#" xmlns="http://www.w3.org/2000/svg" height="22" width="22" version="1.1" xmlns:cc="http://creativecommons.org/ns#" xmlns:dc="http://purl.org/dc/elements/1.1/">
 <metadata id="metadata13">
  <rdf:RDF>
   <cc:Work rdf:about="">
    <dc:format>image/svg+xml</dc:format>
    <dc:type rdf:resource="http://purl.org/dc/dcmitype/StillImage"/>
   </cc:Work>
  </rdf:RDF>
 </metadata>
 <path id="path19" style="fill:#fff" d="m16.25 2a1.5 1.5 0 0 0 -1.25 1.5 1.5 1.5 0 0 0 3 0 1.5 1.5 0 0 0 -1.75 -1.5zm-4.719 1.6875c-0.647 0.0019-1.289 0.1489-2.031 0.5l1.281 2.5625c2.443-0.6899 4.575 0.8776 5.407 3.406h2.968c-0.285-1.477-0.896-2.9823-1.937-4.0935-0.727 0.3712-1.62 0.4007-2.375-0.0313-0.755-0.4317-1.18-1.2233-1.219-2.0312-0.802-0.1857-1.446-0.3144-2.094-0.3125zm-3.531 1.125c-1.265 0.8774-2.5074 2.565-2.8438 4.1563 0.9334 0.4852 1.4036 1.2362 1.4376 2.5002 0.0319 1.187-0.6893 1.958-1.3438 2.437 0.5797 1.124 1.8416 2.735 2.9375 3.25l1.2187-2.937c-1.7116-1.315-2.3391-4.177 0-6.5315l-1.4062-2.875zm-4.5938 5.1563a1.5 1.5 0 0 0 -0.5624 2.8432 1.5 1.5 0 1 0 1.3437 -2.687 1.5 1.5 0 0 0 -0.7813 -0.1562zm12.782 1.9062c-0.68 2.472-2.578 4.024-5.25 3.281l-1.188 2.782c1.422 0.464 2.242 0.516 3.812 0.093 0.046-0.809 0.49-1.561 1.25-2 0.761-0.439 1.652-0.459 2.376-0.093 0.928-1.195 1.732-2.539 1.968-4.063h-2.968zm0.218 5.125a1.5 1.5 0 0 0 -1.406 1.5 1.5 1.5 0 0 0 3 0 1.5 1.5 0 0 0 -1.594 -1.5z"/>
</svg>
